X:105
T:Mist on the Mountain
R:Jig
C:Junior Creehan
S:Junior Creehan
M:6/8
L:1/8
K:C
DGG GAc | dcA GFD | F3 FGA | {d}cAG GFD |
DGG GAc |(dcA GFD | def AG=F | {B}AGG G3 :|
gfd g2a | gfd {e}dcA | GFD F2 G | AGA GFD |
gfd g2a | {a}gfd dcA | GFD F2 G | AGG G2 g |
{a}gfd g2a | gfd dcA | GFD F2 G | AGA GFD |
DCD F2 G | AGF ABc | def AG=F | AGG {A}G3 |
